telegram.svg

<svg viewBox="0 0 24 24" xmlns="http://www.w3.org/2000/svg"><defs><linearGradient gradientTransform="matrix(1.84042 0 0 1.84042 -8.33414 -11.2108)" gradientUnits="userSpaceOnUse" id="LinearGradient" x1="4.5284" x2="17.5689" y1="12.6117" y2="12.6117"><stop offset="0" stop-color="#2aabee"/><stop offset="1" stop-color="#229ed9"/></linearGradient></defs><path d="M22.7804 2.07469C21.9529 2.09307 20.622 2.50931 14.4985 5.06536C12.347 5.96642 8.10922 7.84902 1.67313 10.6441C0.643353 11.0671 0.0604156 11.4473 0.00524857 11.8519C-0.0866931 12.6242 1.04163 12.9059 2.4208 13.3472C3.5609 13.715 5.08086 14.134 5.87158 14.1524C6.58874 14.1708 7.34695 13.839 8.22961 13.2322C14.2428 9.16828 17.3444 7.1151 17.5467 7.07832C17.6938 7.04154 17.8781 7.0255 18.0068 7.13583C18.1356 7.24617 18.1402 7.42574 18.1219 7.48091C18.0115 7.94063 12.3565 13.1313 12.0255 13.4623C10.775 14.7495 9.3771 15.5362 11.5654 16.9706C13.4594 18.221 14.5048 18.98 16.454 20.2488C17.686 21.0579 18.6751 22.027 19.9623 21.9167C20.5507 21.8615 21.145 21.3287 21.4576 19.6737C22.1932 15.7752 23.6572 7.29396 23.9882 3.80008C24.025 3.50586 23.9674 3.12127 23.9307 2.93738C23.8939 2.75349 23.8638 2.48863 23.6431 2.30474C23.3673 2.08407 22.9643 2.07469 22.7804 2.07469Z" fill="url(#LinearGradient)"/></svg>

<svg viewBox="0 0 24 24" xmlns="http://www.w3.org/2000/svg"><defs><linearGradient gradientTransform="translate(-8.334 -11.21) scale(1.84042)" gradientUnits="userSpaceOnUse" id="a" x1="4.528" x2="17.569" y1="12.612" y2="12.612"><stop offset="0" stop-color="#2aabee"/><stop offset="1" stop-color="#229ed9"/></linearGradient></defs><path d="M22.78 2.075c-.827.018-2.158.434-8.282 2.99-2.151.901-6.389 2.784-12.825 5.58-1.03.422-1.613.802-1.668 1.207-.092.772 1.037 1.054 2.416 1.495 1.14.368 2.66.787 3.45.805.718.019 1.476-.313 2.359-.92 6.013-4.064 9.114-6.117 9.317-6.154.147-.036.331-.053.46.058.129.11.133.29.115.345-.11.46-5.765 5.65-6.097 5.981-1.25 1.287-2.648 2.074-.46 3.509 1.894 1.25 2.94 2.009 4.889 3.278 1.232.809 2.221 1.778 3.508 1.668.589-.056 1.183-.588 1.496-2.243.735-3.899 2.2-12.38 2.53-15.874.037-.294-.02-.679-.057-.863-.037-.184-.067-.448-.288-.632-.276-.22-.679-.23-.863-.23Z" fill="url(#a)"/></svg>
